markets/TON.svg

<svg width="42" height="42" viewBox="0 0 42 42" fill="none" xmlns="http://www.w3.org/2000/svg">
<g clip-path="url(#clip0_9309_2871)">
<path d="M21 42C32.598 42 42 32.598 42 21C42 9.40202 32.598 0 21 0C9.40202 0 0 9.40202 0 21C0 32.598 9.40202 42 21 42Z" fill="#0088CC"/>
<path fill-rule="evenodd" clip-rule="evenodd" d="M15.1499 13.875H26.9249C27.3749 13.875 27.7499 13.95 28.1999 14.175C28.7249 14.4 29.0249 14.775 29.1749 15.075C29.1749 15.075 29.1749 15.15 29.2499 15.15C29.4749 15.525 29.6249 15.975 29.6249 16.5C29.6249 16.95 29.5499 17.4 29.2499 17.85L21.8249 30.6C21.6749 30.9 21.3749 31.05 20.9999 31.05C20.6999 31.05 20.3999 30.9 20.1749 30.6L12.8999 17.85C12.7499 17.55 12.4499 17.175 12.4499 16.575C12.3749 16.05 12.5249 15.6 12.7499 15.15C12.9749 14.7 13.3499 14.325 13.8749 14.175C14.3249 13.875 14.8499 13.875 15.1499 13.875ZM20.0999 15.675H15.1499C14.8499 15.675 14.6999 15.675 14.6249 15.75C14.4749 15.825 14.3999 15.9 14.3249 16.05C14.2499 16.125 14.2499 16.275 14.2499 16.425C14.2499 16.5 14.3249 16.575 14.4749 16.875L20.0999 26.625V15.675ZM21.8999 15.675V26.7L27.5999 16.875C27.6749 16.725 27.6749 16.575 27.6749 16.425C27.6749 16.275 27.6749 16.125 27.5999 16.05C27.5249 15.975 27.5249 15.9 27.4499 15.9L27.3749 15.825C27.2249 15.75 27.0749 15.75 26.8499 15.75H21.8999V15.675Z" fill="white"/>
</g>
<defs>
<clipPath id="clip0_9309_2871">
<rect width="42" height="42" fill="white"/>
</clipPath>
</defs>
</svg>

<svg width="42" height="42" fill="none" viewBox="0 0 42 42" xmlns="http://www.w3.org/2000/svg">
  <g clip-path="url(#a)">
    <path fill="#08C" d="M21 42c11.598 0 21-9.402 21-21S32.598 0 21 0 0 9.402 0 21s9.402 21 21 21"/>
    <path fill="#fff" fill-rule="evenodd" d="M15.15 13.875h11.775c.45 0 .825.075 1.275.3.525.225.825.6.975.9 0 0 0 .075.075.075.225.375.375.825.375 1.35 0 .45-.075.9-.375 1.35L21.825 30.6c-.15.3-.45.45-.825.45-.3 0-.6-.15-.825-.45L12.9 17.85c-.15-.3-.45-.675-.45-1.275-.075-.525.075-.975.3-1.425s.6-.825 1.125-.975c.45-.3.975-.3 1.275-.3m4.95 1.8h-4.95c-.3 0-.45 0-.525.075a.6.6 0 0 0-.3.3c-.075.075-.075.225-.075.375 0 .075.075.15.225.45l5.625 9.75zm1.8 0V26.7l5.7-9.825c.075-.15.075-.3.075-.45s0-.3-.075-.375-.075-.15-.15-.15l-.075-.075c-.15-.075-.3-.075-.525-.075H21.9z" clip-rule="evenodd"/>
  </g>
  <defs>
    <clipPath id="a">
      <path fill="#fff" d="M0 0h42v42H0z"/>
    </clipPath>
  </defs>
</svg>
